dist/images/svg/cart.svg

<svg width="22" height="22" viewBox="0 0 22 22" fill="none" xmlns="http://www.w3.org/2000/svg">
<path d="M19.4219 5.15625H16.8031C16.4617 2.2568 13.9896 0 11 0C8.01036 0 5.53829 2.2568 5.1969 5.15625H2.57812C2.10349 5.15625 1.71875 5.54099 1.71875 6.01562V21.1406C1.71875 21.6153 2.10349 22 2.57812 22H19.4219C19.8965 22 20.2812 21.6153 20.2812 21.1406V6.01562C20.2812 5.54099 19.8965 5.15625 19.4219 5.15625ZM11 1.71875C13.0403 1.71875 14.7391 3.20783 15.0674 5.15625H6.93262C7.2609 3.20783 8.95967 1.71875 11 1.71875ZM18.5625 20.2812H3.4375V6.875H5.15625V9.45312C5.15625 9.92776 5.54099 10.3125 6.01562 10.3125C6.49026 10.3125 6.875 9.92776 6.875 9.45312V6.875H15.125V9.45312C15.125 9.92776 15.5097 10.3125 15.9844 10.3125C16.459 10.3125 16.8438 9.92776 16.8438 9.45312V6.875H18.5625V20.2812Z" fill="black"/>
</svg>

<svg width="22" height="22" fill="none" xmlns="http://www.w3.org/2000/svg"><path d="M19.422 5.156h-2.619A5.852 5.852 0 0011 0a5.852 5.852 0 00-5.803 5.156H2.578a.86.86 0 00-.86.86V21.14a.86.86 0 00.86.859h16.844a.86.86 0 00.86-.86V6.017a.86.86 0 00-.86-.86zM11 1.72a4.13 4.13 0 014.067 3.437H6.933A4.131 4.131 0 0111 1.72zm7.563 18.562H3.438V6.875h1.718v2.578a.86.86 0 101.719 0V6.875h8.25v2.578a.86.86 0 101.719 0V6.875h1.718v13.406z" fill="#000"/></svg>
